X:123
T:Maid Of Castlebar (reel), The  
B:CRE1.134 (Gearrchailiu Chaislean an Bharraigh)
F:file ID: cre.1/123maid_cas
S:Tommy Potts
M:C
L:1/8
Q:180
R:reel
K:D
dDD2 EDB,E|D2FA BAFA|dFcF BFAF|DGFD EB,B,2|
FGFD EDB,E|DEFA B3c|dgfe dBAF|GFEG FDD2||
a2ga fdde|fdad fddf|gebe geef|gebe geeg|
f3a g3e|(3fga ec dBAF|GBed cBAG|FA,CE FDD2||

%%%

